; generated by PrusaSlicer 2.3.1+win64 on 2022-02-24 at 21:06:42 UTC

; 

; external perimeters extrusion width = 0.62mm
; perimeters extrusion width = 0.62mm
; infill extrusion width = 0.62mm
; solid infill extrusion width = 0.80mm
; top infill extrusion width = 0.58mm
; support material extrusion width = 0.48mm
; first layer extrusion width = 0.58mm

M107
;TYPE:Custom
;TYPE:Custom
; ///////////////   BEGIN HYREL HEADER for a 16A with a Heated Head in T1/T12 - 2021.02.24   \\\\\\\\\\\\\\\
 
;GENERAL :
 
N14                ; set line numbers for error logging - Slic3r version
M772 S1            ; reset metrics and arm automatic reporting 
M627 X0 Y0 Z0 J-500 K5                 ; setup abort action 
M107               ; fans/UV           ; off
M106 C255          ; fans/UV           ; set to 0-255 range 
G53                ; clear offsets
G21                ; units             : mm
G91                ; coordinatess      : relative
G0 Z1              ; drop bed 
G90                ; coordinates       : absolute  
; TEMP CONTROL : 
M190 S60     ; bed temp     : set and wait
M109 T12 S185 ; head temp    : set and wait
G28 X0 Y0  ;home, goto   : X and Y  
M229 E1 D1; For solid extrusion. Use M229 E1 D1 for liquid extrusion      
T1
G21 ; set units to millimeters
G90 ; use absolute coordinates
M82 ; use absolute distances for extrusion
G92 E0
G0 Y0 X100  ; get head off of print area and stop extuding
G21 ; set units to millimeters
G90 ; use absolute coordinates
M82 ; use absolute distances for extrusion
G92 E0
; Filament gcode
;LAYER_CHANGE
;Z:0.2
;HEIGHT:0.2
;announce new layer <0>
;---
M756 S0.2
M790 ;execute any new layer actions
;---
G1 Z0.200 F4800.000
G1 E-2.40528 F2400.000
G92 E0
G1 X38.000 Y39.226 F4800.000
G1 E2.40528 F2400.000
;TYPE:Skirt
;WIDTH:0.58
G1 F1800.000
G1 X39.328 Y37.917 E2.59556
G1 X40.896 Y36.907 E2.78584
G1 X42.637 Y36.239 E2.97612
G1 X43.693 Y36.021 E3.08617
G1 X44.767 Y35.929 E3.19622
G1 X55.007 Y35.926 E4.24119
G1 X56.401 Y36.035 E4.38382
G1 X57.768 Y36.358 E4.52721
G1 X59.063 Y36.886 E4.66984
G1 X60.267 Y37.611 E4.81323
G1 X61.344 Y38.512 E4.95661
G1 X62.270 Y39.569 E5.10000
G1 X63.021 Y40.757 E5.24339
G1 X63.577 Y42.039 E5.38602
G1 X63.920 Y43.333 E5.52259
G1 X64.068 Y44.663 E5.65917
G1 X64.070 Y55.283 E6.74285
G1 X63.980 Y56.305 E6.84760
G1 X63.777 Y57.304 E6.95158
G1 X63.460 Y58.280 E7.05633
G1 X63.036 Y59.215 E7.16107
G1 X62.500 Y60.108 E7.26734
G1 X61.866 Y60.933 E7.37360
G1 X61.146 Y61.676 E7.47910
G1 X60.341 Y62.336 E7.58536
G1 X59.465 Y62.900 E7.69162
G1 X58.531 Y63.359 E7.79788
G1 X57.550 Y63.709 E7.90414
G1 X56.535 Y63.943 E8.01041
G1 X55.091 Y64.074 E8.15834
G1 X44.479 Y64.059 E9.24125
G1 X43.518 Y63.952 E9.33993
G1 X42.581 Y63.746 E9.43785
G1 X41.664 Y63.439 E9.53652
G1 X40.785 Y63.036 E9.63520
G1 X39.892 Y62.500 E9.74146
G1 X39.067 Y61.866 E9.84773
G1 X38.324 Y61.146 E9.95323
G1 X37.664 Y60.341 E10.05949
G1 X37.100 Y59.465 E10.16575
G1 X36.641 Y58.531 E10.27201
G1 X36.291 Y57.550 E10.37827
G1 X36.057 Y56.535 E10.48454
G1 X35.926 Y55.091 E10.63247
G1 X35.941 Y44.479 E11.71538
G1 X36.048 Y43.518 E11.81406
G1 X36.254 Y42.581 E11.91198
G1 X36.561 Y41.664 E12.01065
G1 X36.964 Y40.785 E12.10933
G1 X37.959 Y39.288 E12.29271
G1 X38.408 Y39.594 F4800.000
G1 F1800.000
G1 X38.476 Y39.494 E12.30506
G1 X39.742 Y38.274 E12.48448
G1 X41.231 Y37.340 E12.66389
G1 X42.880 Y36.730 E12.84330
G1 X43.836 Y36.543 E12.94269
G1 X44.814 Y36.465 E13.04282
G1 X55.007 Y36.463 E14.08296
G1 X56.337 Y36.568 E14.21910
G1 X57.627 Y36.877 E14.35449
G1 X58.861 Y37.386 E14.49063
G1 X60.000 Y38.080 E14.62676
G1 X61.017 Y38.944 E14.76290
G1 X61.883 Y39.949 E14.89830
G1 X62.585 Y41.083 E15.03443
G1 X63.101 Y42.306 E15.16983
G1 X63.404 Y43.501 E15.29568
G1 X63.532 Y44.720 E15.42079
G1 X63.532 Y55.296 E16.49997
G1 X63.442 Y56.273 E16.60009
G1 X63.240 Y57.233 E16.70022
G1 X62.929 Y58.164 E16.80034
G1 X62.514 Y59.053 E16.90046
G1 X62.003 Y59.882 E16.99985
G1 X61.397 Y60.653 E17.09998
G1 X60.711 Y61.345 E17.19937
G1 X59.946 Y61.959 E17.29949
G1 X59.121 Y62.477 E17.39888
G1 X58.236 Y62.900 E17.49900
G1 X57.308 Y63.219 E17.59912
G1 X56.349 Y63.430 E17.69925
G1 X55.070 Y63.537 E17.83024
G1 X44.495 Y63.522 E18.90940
G1 X43.570 Y63.417 E19.00437
G1 X42.663 Y63.211 E19.09935
G1 X41.783 Y62.908 E19.19432
G1 X40.947 Y62.514 E19.28856
G1 X40.118 Y62.003 E19.38795
G1 X39.347 Y61.397 E19.48808
G1 X38.655 Y60.711 E19.58746
G1 X38.041 Y59.946 E19.68759
G1 X37.523 Y59.121 E19.78698
G1 X37.100 Y58.236 E19.88710
G1 X36.781 Y57.308 E19.98722
G1 X36.570 Y56.349 E20.08735
G1 X36.463 Y55.070 E20.21834
G1 X36.478 Y44.495 E21.29750
G1 X36.583 Y43.570 E21.39247
G1 X36.789 Y42.663 E21.48745
G1 X37.092 Y41.783 E21.58242
G1 X37.486 Y40.947 E21.67666
G1 X38.365 Y39.656 E21.83608
G1 E19.43079 F2400.000
G92 E0
G1 X46.364 Y46.364 F4800.000
G1 E2.40528 F2400.000
;TYPE:Perimeter
G1 F1800.000
G1 X53.636 Y46.364 E3.14732
G1 X53.636 Y53.636 E3.88936
G1 X46.364 Y53.636 E4.63140
G1 X46.364 Y46.439 E5.36579
G1 X45.827 Y45.827 F4800.000
G1 F1800.000
G1 X54.173 Y45.827 E6.21744
G1 X54.173 Y54.173 E7.06909
G1 X45.827 Y54.173 E7.92075
G1 X45.827 Y45.902 E8.76475
G1 X45.290 Y45.290 F4800.000
;TYPE:External perimeter
G1 F1800.000
G1 X54.710 Y45.290 E9.72601
G1 X54.710 Y54.710 E10.68728
G1 X45.290 Y54.710 E11.64854
G1 X45.290 Y45.365 E12.60215
G1 X45.773 Y45.419 F4800.000
G1 E10.19687 F2400.000
G92 E0
G1 X53.475 Y47.639 F4800.000
G1 E2.40528 F2400.000
;TYPE:Solid infill
;WIDTH:0.59314
G1 F1800.000
G1 X52.603 Y46.767 E2.53418
G1 X51.825 Y46.767 E2.61553
G1 X53.233 Y48.175 E2.82374
G1 X53.233 Y48.953 E2.90509
G1 X51.047 Y46.767 E3.22834
G1 X50.268 Y46.767 E3.30969
G1 X53.233 Y49.732 E3.74798
G1 X53.233 Y50.510 E3.82933
G1 X49.490 Y46.767 E4.38267
G1 X48.712 Y46.767 E4.46402
G1 X53.233 Y51.288 E5.13239
G1 X53.233 Y52.066 E5.21374
G1 X47.934 Y46.767 E5.99716
G1 X47.156 Y46.767 E6.07851
G1 X53.233 Y52.844 E6.97697
G1 X53.233 Y53.233 E7.01764
G1 X52.844 Y53.233 E7.05832
G1 X46.767 Y47.156 E7.95676
G1 X46.767 Y47.934 E8.03811
G1 X52.066 Y53.233 E8.82151
G1 X51.288 Y53.233 E8.90286
G1 X46.767 Y48.712 E9.57122
G1 X46.767 Y49.490 E9.65257
G1 X50.510 Y53.233 E10.20589
G1 X49.731 Y53.233 E10.28723
G1 X46.767 Y50.269 E10.72551
G1 X46.767 Y51.047 E10.80686
G1 X48.953 Y53.233 E11.13009
G1 X48.175 Y53.233 E11.21144
G1 X46.767 Y51.825 E11.41963
G1 X46.767 Y52.603 E11.50098
G1 X47.639 Y53.475 E11.62986
;LAYER_CHANGE
;Z:0.4
;HEIGHT:0.2
;announce new layer <1>
;---
M756 S0.2
M790 ;execute any new layer actions
;---
G1 Z0.400 F4800.000
G1 X46.464 Y46.464
;TYPE:Perimeter
;WIDTH:0.62
G1 F900.000
G1 X53.536 Y46.464 E12.40524
G1 X53.536 Y53.536 E13.18061
G1 X46.464 Y53.536 E13.95599
G1 X46.464 Y46.539 E14.72314
G1 X45.887 Y45.887 F4800.000
G1 F900.000
G1 X54.113 Y45.887 E15.62506
G1 X54.113 Y54.113 E16.52699
G1 X45.887 Y54.113 E17.42891
G1 X45.887 Y45.962 E18.32261
G1 X45.310 Y45.310 F4800.000
;TYPE:External perimeter
G1 F900.000
G1 X54.690 Y45.310 E19.35108
G1 X54.690 Y54.690 E20.37955
G1 X45.310 Y54.690 E21.40802
G1 X45.310 Y45.385 E22.42827
G1 X45.793 Y45.439 F4800.000
G1 X51.745 Y53.376
;TYPE:Solid infill
;WIDTH:0.847626
G1 F600.000
G1 X53.036 Y52.086 E22.70736
G1 X53.036 Y50.947 E22.88136
G1 X50.947 Y53.036 E23.33285
G1 X49.809 Y53.036 E23.50684
G1 X53.036 Y49.809 E24.20440
G1 X53.036 Y48.671 E24.37840
G1 X48.671 Y53.036 E25.32203
G1 X47.533 Y53.036 E25.49603
G1 X53.036 Y47.533 E26.68573
G1 X53.036 Y46.964 E26.77272
G1 X52.466 Y46.964 E26.85973
G1 X46.964 Y52.466 E28.04940
G1 X46.964 Y51.328 E28.22339
G1 X51.328 Y46.964 E29.16700
G1 X50.190 Y46.964 E29.34099
G1 X46.964 Y50.190 E30.03853
G1 X46.964 Y49.052 E30.21252
G1 X49.052 Y46.964 E30.66399
G1 X47.914 Y46.964 E30.83798
G1 X46.624 Y48.255 E31.11704
;LAYER_CHANGE
;Z:0.6
;HEIGHT:0.2
;announce new layer <2>
;---
M756 S0.2
M790 ;execute any new layer actions
;---
G1 Z0.600 F4800.000
G1 X46.464 Y46.464
;TYPE:Perimeter
;WIDTH:0.62
G1 F900.000
G1 X53.536 Y46.464 E31.89242
G1 X53.536 Y53.536 E32.66779
G1 X46.464 Y53.536 E33.44317
G1 X46.464 Y46.539 E34.21032
G1 X45.887 Y45.887 F4800.000
G1 F900.000
G1 X54.113 Y45.887 E35.11225
G1 X54.113 Y54.113 E36.01417
G1 X45.887 Y54.113 E36.91609
G1 X45.887 Y45.962 E37.80979
G1 X45.310 Y45.310 F4800.000
;TYPE:External perimeter
G1 F900.000
G1 X54.690 Y45.310 E38.83826
G1 X54.690 Y54.690 E39.86674
G1 X45.310 Y54.690 E40.89521
G1 X45.310 Y45.385 E41.91545
G1 X45.793 Y45.439 F4800.000
G1 X53.376 Y48.255
;TYPE:Solid infill
;WIDTH:0.847626
G1 F600.000
G1 X52.086 Y46.964 E42.19454
G1 X50.947 Y46.964 E42.36854
G1 X53.036 Y49.053 E42.82003
G1 X53.036 Y50.191 E42.99403
G1 X49.809 Y46.964 E43.69158
G1 X48.671 Y46.964 E43.86558
G1 X53.036 Y51.329 E44.80921
G1 X53.036 Y52.467 E44.98321
G1 X47.533 Y46.964 E46.17291
G1 X46.964 Y46.964 E46.25990
G1 X46.964 Y47.534 E46.34691
G1 X52.466 Y53.036 E47.53658
G1 X51.328 Y53.036 E47.71058
G1 X46.964 Y48.672 E48.65418
G1 X46.964 Y49.810 E48.82818
G1 X50.190 Y53.036 E49.52571
G1 X49.052 Y53.036 E49.69971
G1 X46.964 Y50.948 E50.15117
G1 X46.964 Y52.086 E50.32517
G1 X48.255 Y53.376 E50.60422
M106 S232.05
;LAYER_CHANGE
;Z:0.8
;HEIGHT:0.2
;announce new layer <3>
;---
M756 S0.2
M790 ;execute any new layer actions
;---
G1 Z0.800 F4800.000
G1 X46.464 Y46.464
;TYPE:Perimeter
;WIDTH:0.62
G1 F900.000
G1 X53.536 Y46.464 E51.37960
G1 X53.536 Y53.536 E52.15498
G1 X46.464 Y53.536 E52.93035
G1 X46.464 Y46.539 E53.69750
G1 X45.887 Y45.887 F4800.000
G1 F900.000
G1 X54.113 Y45.887 E54.59943
G1 X54.113 Y54.113 E55.50135
G1 X45.887 Y54.113 E56.40327
G1 X45.887 Y45.962 E57.29697
G1 X45.310 Y45.310 F4800.000
;TYPE:External perimeter
G1 F900.000
G1 X54.690 Y45.310 E58.32545
G1 X54.690 Y54.690 E59.35392
G1 X45.310 Y54.690 E60.38239
G1 X45.310 Y45.385 E61.40264
G1 X45.793 Y45.439 F4800.000
G1 X51.745 Y53.376
;TYPE:Solid infill
;WIDTH:0.847624
G1 F600.000
G1 X53.036 Y52.086 E61.68172
G1 X53.036 Y50.947 E61.85572
G1 X50.947 Y53.036 E62.30720
G1 X49.809 Y53.036 E62.48120
G1 X53.036 Y49.809 E63.17876
G1 X53.036 Y48.671 E63.35275
G1 X48.671 Y53.036 E64.29638
G1 X47.533 Y53.036 E64.47037
G1 X53.036 Y47.533 E65.66007
G1 X53.036 Y46.964 E65.74706
G1 X52.466 Y46.964 E65.83406
G1 X46.964 Y52.466 E67.02373
G1 X46.964 Y51.328 E67.19772
G1 X51.328 Y46.964 E68.14132
G1 X50.190 Y46.964 E68.31532
G1 X46.964 Y50.190 E69.01284
G1 X46.964 Y49.052 E69.18684
G1 X49.052 Y46.964 E69.63830
G1 X47.914 Y46.964 E69.81230
G1 X46.624 Y48.255 E70.09135
;LAYER_CHANGE
;Z:1
;HEIGHT:0.2
;announce new layer <4>
;---
M756 S0.2
M790 ;execute any new layer actions
;---
G1 Z1.000 F4800.000
G1 X46.464 Y46.464
;TYPE:Perimeter
;WIDTH:0.62
G1 F900.000
G1 X53.536 Y46.464 E70.86673
G1 X53.536 Y53.536 E71.64210
G1 X46.464 Y53.536 E72.41748
G1 X46.464 Y46.539 E73.18463
G1 X45.887 Y45.887 F4800.000
G1 F900.000
G1 X54.113 Y45.887 E74.08656
G1 X54.113 Y54.113 E74.98848
G1 X45.887 Y54.113 E75.89040
G1 X45.887 Y45.962 E76.78410
G1 X45.310 Y45.310 F4800.000
;TYPE:External perimeter
G1 F900.000
G1 X54.690 Y45.310 E77.81257
G1 X54.690 Y54.690 E78.84105
G1 X45.310 Y54.690 E79.86952
G1 X45.310 Y45.385 E80.88976
G1 X45.793 Y45.439 F4800.000
G1 X53.376 Y48.255
;TYPE:Solid infill
;WIDTH:0.847624
G1 F600.000
G1 X52.086 Y46.964 E81.16885
G1 X50.947 Y46.964 E81.34285
G1 X53.036 Y49.053 E81.79433
G1 X53.036 Y50.191 E81.96833
G1 X49.809 Y46.964 E82.66589
G1 X48.671 Y46.964 E82.83988
G1 X53.036 Y51.329 E83.78351
G1 X53.036 Y52.467 E83.95750
G1 X47.533 Y46.964 E85.14720
G1 X46.964 Y46.964 E85.23418
G1 X46.964 Y47.534 E85.32119
G1 X52.466 Y53.036 E86.51086
G1 X51.328 Y53.036 E86.68485
G1 X46.964 Y48.672 E87.62845
G1 X46.964 Y49.810 E87.80245
G1 X50.190 Y53.036 E88.49997
G1 X49.052 Y53.036 E88.67397
G1 X46.964 Y50.948 E89.12543
G1 X46.964 Y52.086 E89.29943
G1 X48.255 Y53.376 E89.57848
;LAYER_CHANGE
;Z:1.2
;HEIGHT:0.2
;announce new layer <5>
;---
M756 S0.2
M790 ;execute any new layer actions
;---
G1 Z1.200 F4800.000
G1 X46.464 Y46.464
;TYPE:Perimeter
;WIDTH:0.62
G1 F900.000
G1 X53.536 Y46.464 E90.35386
G1 X53.536 Y53.536 E91.12923
G1 X46.464 Y53.536 E91.90461
G1 X46.464 Y46.539 E92.67176
G1 X45.887 Y45.887 F4800.000
G1 F900.000
G1 X54.113 Y45.887 E93.57368
G1 X54.113 Y54.113 E94.47561
G1 X45.887 Y54.113 E95.37753
G1 X45.887 Y45.962 E96.27123
G1 X45.310 Y45.310 F4800.000
;TYPE:External perimeter
G1 F900.000
G1 X54.690 Y45.310 E97.29970
G1 X54.690 Y54.690 E98.32817
G1 X45.310 Y54.690 E99.35665
G1 X45.310 Y45.385 E100.37689
G1 X45.793 Y45.439 F4800.000
G1 X51.745 Y53.376
;TYPE:Solid infill
;WIDTH:0.847624
G1 F600.000
G1 X53.036 Y52.086 E100.65598
G1 X53.036 Y50.947 E100.82997
G1 X50.947 Y53.036 E101.28146
G1 X49.809 Y53.036 E101.45546
G1 X53.036 Y49.809 E102.15301
G1 X53.036 Y48.671 E102.32701
G1 X48.671 Y53.036 E103.27064
G1 X47.533 Y53.036 E103.44463
G1 X53.036 Y47.533 E104.63432
G1 X53.036 Y46.964 E104.72131
G1 X52.466 Y46.964 E104.80832
G1 X46.964 Y52.466 E105.99799
G1 X46.964 Y51.328 E106.17198
G1 X51.328 Y46.964 E107.11558
G1 X50.190 Y46.964 E107.28957
G1 X46.964 Y50.190 E107.98710
G1 X46.964 Y49.052 E108.16110
G1 X49.052 Y46.964 E108.61256
G1 X47.914 Y46.964 E108.78655
G1 X46.624 Y48.255 E109.06561
;LAYER_CHANGE
;Z:1.4
;HEIGHT:0.2
;announce new layer <6>
;---
M756 S0.2
M790 ;execute any new layer actions
;---
G1 Z1.400 F4800.000
G1 X46.464 Y46.464
;TYPE:Perimeter
;WIDTH:0.62
G1 F900.000
G1 X53.536 Y46.464 E109.84098
G1 X53.536 Y53.536 E110.61636
G1 X46.464 Y53.536 E111.39174
G1 X46.464 Y46.539 E112.15889
G1 X45.887 Y45.887 F4800.000
G1 F900.000
G1 X54.113 Y45.887 E113.06081
G1 X54.113 Y54.113 E113.96274
G1 X45.887 Y54.113 E114.86466
G1 X45.887 Y45.962 E115.75836
G1 X45.310 Y45.310 F4800.000
;TYPE:External perimeter
G1 F900.000
G1 X54.690 Y45.310 E116.78683
G1 X54.690 Y54.690 E117.81530
G1 X45.310 Y54.690 E118.84377
G1 X45.310 Y45.385 E119.86402
G1 X45.793 Y45.439 F4800.000
G1 X53.376 Y48.255
;TYPE:Solid infill
;WIDTH:0.847624
G1 F600.000
G1 X52.086 Y46.964 E120.14311
G1 X50.947 Y46.964 E120.31710
G1 X53.036 Y49.053 E120.76859
G1 X53.036 Y50.191 E120.94259
G1 X49.809 Y46.964 E121.64014
G1 X48.671 Y46.964 E121.81414
G1 X53.036 Y51.329 E122.75776
G1 X53.036 Y52.467 E122.93176
G1 X47.533 Y46.964 E124.12145
G1 X46.964 Y46.964 E124.20844
G1 X46.964 Y47.534 E124.29545
G1 X52.466 Y53.036 E125.48511
G1 X51.328 Y53.036 E125.65911
G1 X46.964 Y48.672 E126.60271
G1 X46.964 Y49.810 E126.77670
G1 X50.190 Y53.036 E127.47423
G1 X49.052 Y53.036 E127.64823
G1 X46.964 Y50.948 E128.09969
G1 X46.964 Y52.086 E128.27368
G1 X48.255 Y53.376 E128.55274
;LAYER_CHANGE
;Z:1.6
;HEIGHT:0.2
;announce new layer <7>
;---
M756 S0.2
M790 ;execute any new layer actions
;---
G1 Z1.600 F4800.000
G1 X46.464 Y46.464
;TYPE:Perimeter
;WIDTH:0.62
G1 F900.000
G1 X53.536 Y46.464 E129.32811
G1 X53.536 Y53.536 E130.10349
G1 X46.464 Y53.536 E130.87886
G1 X46.464 Y46.539 E131.64602
G1 X45.887 Y45.887 F4800.000
G1 F900.000
G1 X54.113 Y45.887 E132.54794
G1 X54.113 Y54.113 E133.44986
G1 X45.887 Y54.113 E134.35179
G1 X45.887 Y45.962 E135.24549
G1 X45.310 Y45.310 F4800.000
;TYPE:External perimeter
G1 F900.000
G1 X54.690 Y45.310 E136.27396
G1 X54.690 Y54.690 E137.30243
G1 X45.310 Y54.690 E138.33090
G1 X45.310 Y45.385 E139.35115
G1 X45.793 Y45.439 F4800.000
G1 X51.745 Y53.376
;TYPE:Solid infill
;WIDTH:0.847624
G1 F600.000
G1 X53.036 Y52.086 E139.63023
G1 X53.036 Y50.947 E139.80423
G1 X50.947 Y53.036 E140.25572
G1 X49.809 Y53.036 E140.42972
G1 X53.036 Y49.809 E141.12727
G1 X53.036 Y48.671 E141.30127
G1 X48.671 Y53.036 E142.24489
G1 X47.533 Y53.036 E142.41889
G1 X53.036 Y47.533 E143.60858
G1 X53.036 Y46.964 E143.69557
G1 X52.466 Y46.964 E143.78258
G1 X46.964 Y52.466 E144.97224
G1 X46.964 Y51.328 E145.14624
G1 X51.328 Y46.964 E146.08983
G1 X50.190 Y46.964 E146.26383
G1 X46.964 Y50.190 E146.96136
G1 X46.964 Y49.052 E147.13536
G1 X49.052 Y46.964 E147.58681
G1 X47.914 Y46.964 E147.76081
G1 X46.624 Y48.255 E148.03987
;LAYER_CHANGE
;Z:1.8
;HEIGHT:0.2
;announce new layer <8>
;---
M756 S0.2
M790 ;execute any new layer actions
;---
G1 Z1.800 F4800.000
G1 X46.464 Y46.464
;TYPE:Perimeter
;WIDTH:0.62
G1 F900.000
G1 X53.536 Y46.464 E148.81524
G1 X53.536 Y53.536 E149.59062
G1 X46.464 Y53.536 E150.36599
